!!!OTL: Betrogen (108), S. 262
!!!id: T0271
**kern
*clefG2
*k[f#c#]
*D:
{8d
=1
4d
8f#
4a
8f#
=2
8f#
8e}
4.r
=3
{8d
=4
4d
16a
16a
4a
8e
=5
4f#}
4.r
=6
{8d
=7
8d
8f#
8a
8dd
8cc#
8b
=8
8b
8a}
4.r
=9
{8a
=10
4a
8b
4g
8a
=11
4f#}
4.r
==
*-
!!!minrhy: 16
!!!meters: 6/8 ]  ZZ[4
!!!cut: Betrogen (108), S. 262
!!!reg: Luxemburg
!!!trd: Singendes Volk, Esch-Alzette 1937 posth.
!!!rhy1: X_  X__X_X__X_  X_X_0__.
!!!rhy2: X_  X__XXX__X_  X__0__.
!!!key: T0271  16  D 6/8 ]  ZZ[4
!!!mod: HEPTATONIK IONISCH]  AMBITUS[8
!!!kad: 2353
!!!akz: 153_153_1+16_543_
!!!fot: 'a__av_b__c__
!!!for: 'a__b__c__aw_
!!!fok: '^a_^a_^a_\__
!! PHRAS[AUFTAKTIG]
!!!fkt: Liebeslieder
!!!bem: Grevenmacher, fff Wilh. Weins, Esch-Alzette, 1914
!! THILL, Mathias:
!! PR[40] 2K[3] 2G[10] 3K[0] 3G[3] 4A[10] 4Ü[0] 5A[0] 6K[0] 6G[0]
!! 7K[3] 7G[0] 8A[0] MEHR[0] SI[30] ABS[30] SR[13] SP[17]
!! ST[8] 2k[3] 2g[7] 3k[7] 3g[7] 4d[3] 4ü[0] 5d[3] 6k[0] 6g[0]
!! 7k[0] 7g[0] 8d[0] mehr[0] si[30] dm[0] sr[10] sp[20]
!! 1F[6] 2F[48] 3F[42] 4F[0] LF[0] 2P[0] 3P[3] 4P[0] TRI[0] DF[4] AB[33]
!! TF[0] U3K[0] U3[0] U4[0] U4Ü[0] U5[23] U6K[0] U6[6] U7K[0] U7[3]
!! N1[35] N2K[0] N2[6] N3K[0] N3[10] N4[13] N4Ü[0] N5[3] N6K[0] N6[0]
!!!n7k: 0] N7[0] O1[0] O2K[0] O2[0] O3K[0] O3[0] HÖ[0
